packages/astro-components-stencil/src/icons/loyalty.svg

<svg xmlns="http://www.w3.org/2000/svg" viewBox="0 0 24 24"><g xmlns="http://www.w3.org/2000/svg" id="loyalty" fill-rule="nonzero">
            <path d="M21.41 11.58l-9-9C12.05 2.22 11.55 2 11 2H4c-1.1 0-2 .9-2 2v7c0 .55.22 1.05.59 1.42l9 9c.36.36.86.58 1.41.58.55 0 1.05-.22 1.41-.59l7-7c.37-.36.59-.86.59-1.41 0-.55-.23-1.06-.59-1.42zM5.5 7C4.67 7 4 6.33 4 5.5S4.67 4 5.5 4 7 4.67 7 5.5 6.33 7 5.5 7zm11.77 8.27l-3.92 3.92c-.2.2-.51.2-.71 0l-3.92-3.92a2.53 2.53 0 01-.67-2.34c.19-.88.89-1.61 1.76-1.84.94-.25 1.85.04 2.44.65l.75.72.73-.73a2.5 2.5 0 013.54 3.54z"/>
        </g></svg>

<svg width="24" height="24" viewBox="0 0 24 24" fill="none" xmlns="http://www.w3.org/2000/svg">
<path fill-rule="evenodd" clip-rule="evenodd" d="M21.41 11.58L12.41 2.58C12.05 2.22 11.55 2 11 2H4C2.9 2 2 2.9 2 4V11C2 11.55 2.22 12.05 2.59 12.42L11.59 21.42C11.95 21.78 12.45 22 13 22C13.55 22 14.05 21.78 14.41 21.41L21.41 14.41C21.78 14.05 22 13.55 22 13C22 12.45 21.77 11.94 21.41 11.58ZM5.5 7C4.67 7 4 6.33 4 5.5C4 4.67 4.67 4 5.5 4C6.33 4 7 4.67 7 5.5C7 6.33 6.33 7 5.5 7ZM13.35 19.19L17.27 15.27C17.72 14.82 18 14.19 18 13.5C18 12.12 16.88 11 15.5 11C14.81 11 14.18 11.28 13.73 11.73L13 12.46L12.25 11.74C11.66 11.13 10.75 10.84 9.81 11.09C8.94 11.32 8.24 12.05 8.05 12.93C7.85 13.84 8.15 14.69 8.72 15.27L12.64 19.19C12.84 19.39 13.15 19.39 13.35 19.19Z" fill="black"/>
</svg>
